X:625
T:Culaodh
M:6/8
L:1/8
K:A
a|age dBc|ABA c2 d|edc dcB|EFE dcB|
cBA AGA|BAB gab|age dBe|1 ABA A2 a :|2 ABA Ace ||
aba aga|bef gab|age dBe|dBA GAB|
aba aga bef gab|age dBe|1 ABA Ace :|2 ABA A2 a ||
